dist/svgs/carbon-icons/svg/block-chain.svg

<svg xmlns="http://www.w3.org/2000/svg" fill-rule="evenodd" viewBox="0 0 21 24"><path d="M9.5 1c.9 0 1.5.7 1.5 1.5S10.4 4 9.5 4C8.7 4 8 3.3 8 2.5S8.7 1 9.5 1zm0-1C8.2 0 7 1.1 7 2.5S8.2 5 9.5 5 12 3.9 12 2.5 10.9 0 9.5 0zM17 4l-3 1.7v2.4L10.3 6 5 9v3.6l-2-1.1-3 1.7v3.5l3 1.7 3-1.7v-1.1l4.5 2.4 5-3v-4.9l1.5.9 3-1.7V5.8L17 4zm-6.7 3.2l3.8 2.1-3.5 1.8-4-1.8 3.7-2.1zM5 16.1l-2 1.2-2-1.1v-2.3l2-1.2 2 1.1v2.3zm1-5.9l4 1.8v4.6l-4-2.2v-4.2zm5 6.3V12l3.5-1.8v4.2L11 16.5zm8-7.8l-2 1.2-2-1.2V6.3l2-1.2 2 1.2v2.4zM2.5 4C3.4 4 4 4.7 4 5.5S3.4 7 2.5 7 1 6.3 1 5.5 1.7 4 2.5 4zm0-1C1.1 3 0 4.1 0 5.5S1.1 8 2.5 8 5 6.9 5 5.5 3.9 3 2.5 3zm9 17c.8 0 1.5.7 1.5 1.5s-.6 1.5-1.5 1.5-1.5-.7-1.5-1.5.7-1.5 1.5-1.5zm0-1C10.1 19 9 20.1 9 21.5s1.1 2.5 2.5 2.5 2.5-1.1 2.5-2.5-1.1-2.5-2.5-2.5zm7-3c.8 0 1.5.7 1.5 1.5s-.7 1.5-1.5 1.5-1.5-.7-1.5-1.5.7-1.5 1.5-1.5zm0-1c-1.4 0-2.5 1.1-2.5 2.5s1.1 2.5 2.5 2.5 2.5-1.1 2.5-2.5-1.1-2.5-2.5-2.5z"/></svg>

<svg width="21px" height="24px" viewBox="0 0 21 24" version="1.1" xmlns="http://www.w3.org/2000/svg" xmlns:xlink="http://www.w3.org/1999/xlink" fill-rule="evenodd">
	<path d="M9.5,1 C10.4,1 11,1.7 11,2.5 C11,3.3 10.4,4 9.5,4 C8.7,4 8,3.3 8,2.5 C8,1.7 8.7,1 9.5,1 L9.5,1 Z M9.5,0 C8.2,0 7,1.1 7,2.5 C7,3.9 8.2,5 9.5,5 C10.8,5 12,3.9 12,2.5 C12,1.1 10.9,0 9.5,0 L9.5,0 L9.5,0 Z"></path>
	<path d="M17,4 L14,5.7 L14,8.1 L10.3,6 L5,9 L5,12.6 L3,11.5 L0,13.2 L0,16.7 L3,18.4 L6,16.7 L6,15.6 L10.5,18 L15.5,15 L15.5,10.1 L17,11 L20,9.3 L20,5.8 L17,4 L17,4 Z M10.3,7.2 L14.1,9.3 L10.6,11.1 L6.6,9.3 L10.3,7.2 L10.3,7.2 Z M5,16.1 L3,17.3 L1,16.2 L1,13.9 L3,12.7 L5,13.8 L5,16.1 L5,16.1 Z M6,10.2 L10,12 L10,16.6 L6,14.4 L6,10.2 L6,10.2 Z M11,16.5 L11,12 L14.5,10.2 L14.5,14.4 L11,16.5 L11,16.5 Z M19,8.7 L17,9.9 L15,8.7 L15,6.3 L17,5.1 L19,6.3 L19,8.7 L19,8.7 Z"></path>
	<path d="M2.5,4 C3.4,4 4,4.7 4,5.5 C4,6.3 3.4,7 2.5,7 C1.6,7 1,6.3 1,5.5 C1,4.7 1.7,4 2.5,4 L2.5,4 Z M2.5,3 C1.1,3 0,4.1 0,5.5 C0,6.9 1.1,8 2.5,8 C3.9,8 5,6.9 5,5.5 C5,4.1 3.9,3 2.5,3 L2.5,3 L2.5,3 Z"></path>
	<path d="M11.5,20 C12.3,20 13,20.7 13,21.5 C13,22.3 12.4,23 11.5,23 C10.6,23 10,22.3 10,21.5 C10,20.7 10.7,20 11.5,20 L11.5,20 Z M11.5,19 C10.1,19 9,20.1 9,21.5 C9,22.9 10.1,24 11.5,24 C12.9,24 14,22.9 14,21.5 C14,20.1 12.9,19 11.5,19 L11.5,19 L11.5,19 Z"></path>
	<path d="M18.5,16 C19.3,16 20,16.7 20,17.5 C20,18.3 19.3,19 18.5,19 C17.7,19 17,18.3 17,17.5 C17,16.7 17.7,16 18.5,16 L18.5,16 Z M18.5,15 C17.1,15 16,16.1 16,17.5 C16,18.9 17.1,20 18.5,20 C19.9,20 21,18.9 21,17.5 C21,16.1 19.9,15 18.5,15 L18.5,15 L18.5,15 Z"></path>
</svg>
